src/symbolic/devices/drive-harddisk-solidstate-symbolic.svg

<svg xmlns="http://www.w3.org/2000/svg" width="16" height="16" version="1.1">
 <path style="fill:#444444" d="M 3,1 C 2,1 2,2 2,2 V 14 C 2,15 3,15 3,15 H 13 C 14,15 14,14 14,14 V 2 C 14,1 13,1 13,1 Z M 5,11 C 5.55,11 6,11.45 6,12 6,12.55 5.55,13 5,13 4.45,13 4,12.55 4,12 4,11.45 4.45,11 5,11 Z"/>
</svg>

<svg xmlns="http://www.w3.org/2000/svg" width="16" height="16"><path d="M3 1C2 1 2 2 2 2v12c0 1 1 1 1 1h10c1 0 1-1 1-1V2c0-1-1-1-1-1zm2 10c.55 0 1 .45 1 1s-.45 1-1 1-1-.45-1-1 .45-1 1-1z" fill="#444"/></svg>
